src/dsmComponents/Icons/heartrate-active-16px.svg

<?xml version="1.0" encoding="UTF-8"?>
<svg width="16px" height="16px" viewBox="0 0 16 16" version="1.1" xmlns="http://www.w3.org/2000/svg" xmlns:xlink="http://www.w3.org/1999/xlink">
    <!-- Generator: Sketch 59.1 (86144) - https://sketch.com -->
    <title>heartrate-active-16px</title>
    <desc>Created with Sketch.</desc>
    <defs>
        <path d="M6.54666667,5.49533333 L8.714,10.9166667 C8.80818998,11.1518031 9.02749749,11.3132486 9.28,11.3333333 L9.28,11.3333333 L9.33333333,11.3333333 C9.56732361,11.3332888 9.78416168,11.2105742 9.90466667,11.01 L9.90466667,11.01 L11.7106667,8 L14.9013333,8 C12.858,11.526 8.652,15 8.4,15.2 C8.27837584,15.2739287 8.14165656,15.3195018 8,15.3333333 C7.85338447,15.35146 7.70641639,15.3024707 7.6,15.2 C7.348,15 3.142,11.526 1.09866667,8 L1.09866667,8 L4.66666667,8 C4.90065694,7.9999555 5.11749501,7.87724084 5.238,7.67666667 L5.238,7.67666667 L6.54666667,5.49533333 Z M11.3333333,-8.9271909e-05 C12.5733512,-0.0076883153 13.7648085,0.481507676 14.6416504,1.3583496 C15.5184923,2.23519153 16.0076883,3.42664875 16.0000893,4.66666667 C15.9810398,5.35521774 15.8315022,6.03390591 15.5593333,6.66666667 L15.5593333,6.66666667 L11.3333333,6.66666667 C11.0997457,6.66628858 10.8829983,6.78819318 10.762,6.988 L10.762,6.988 L9.45333333,9.16933333 L7.286,3.75 C7.19181002,3.51486353 6.97250251,3.35341807 6.72,3.33333333 C6.46674365,3.31110361 6.2234104,3.43705518 6.09533333,3.65666667 L6.09533333,3.65666667 L4.28933333,6.66666667 L0.440666667,6.66666667 C0.168497795,6.03390591 0.0189601693,5.35521774 -8.9271909e-05,4.66666667 C-0.0076883153,3.42664875 0.481507676,2.23519153 1.3583496,1.3583496 C2.23519153,0.481507676 3.42664875,-0.0076883153 4.66666667,-8.9271909e-05 C5.91897014,0.00860386296 7.1171163,0.511825253 8,1.4 C8.8828837,0.511825253 10.0810299,0.00860386296 11.3333333,-8.9271909e-05 Z" id="path-1"></path>
    </defs>
    <g id="Final" stroke="none" stroke-width="1" fill="none" fill-rule="evenodd">
        <g id="All-Nucleo-Icons" transform="translate(-319.000000, -3612.000000)">
            <g id="Solo/Nucleo/16px/heartrate-active" transform="translate(315.000000, 3608.000000)">
                <g id="heartbeat" transform="translate(4.000000, 4.000000)">
                    <g id="Colour/Default-Colour">
                        <mask id="mask-2" fill="white">
                            <use xlink:href="#path-1"></use>
                        </mask>
                        <g id="Mask" fill-rule="nonzero"></g>
                        <g id="colour/neutral/chia" mask="url(#mask-2)" fill="#737373">
                            <g transform="translate(-24.000000, -24.000000)" id="Colour">
                                <rect x="0" y="0" width="64" height="64"></rect>
                            </g>
                        </g>
                    </g>
                </g>
            </g>
        </g>
    </g>
</svg>

<svg width="16" height="16" xmlns="http://www.w3.org/2000/svg" xmlns:xlink="http://www.w3.org/1999/xlink"><defs><path d="M6.547 5.495l2.167 5.422a.667.667 0 00.566.416h.053a.667.667 0 00.572-.323L11.71 8h3.19c-2.043 3.526-6.249 7-6.501 7.2a.947.947 0 01-.4.133.49.49 0 01-.4-.133c-.251-.2-4.457-3.674-6.5-7.2h3.568c.234 0 .45-.123.571-.323l1.309-2.182zM11.333 0A4.638 4.638 0 0116 4.667a5.443 5.443 0 01-.44 2h-4.227a.667.667 0 00-.571.321L9.453 9.169 7.286 3.75a.667.667 0 00-1.19-.093l-1.807 3.01H.441a5.443 5.443 0 01-.441-2A4.638 4.638 0 014.667 0 4.746 4.746 0 018 1.4 4.746 4.746 0 0111.333 0z" id="heartrate-active-16px_svg__a"/></defs><use fill="#737373" xlink:href="#heartrate-active-16px_svg__a" fill-rule="evenodd"/></svg>
